;FLAVOR:Marlin
;TIME:1181
;Filament used: 0.823623m
;Layer height: 0.28
;MINX:85.355
;MINY:88.476
;MINZ:0.28
;MAXX:134.5
;MAXY:130.332
;MAXZ:13.16
;POSTPROCESSED
;Generated with Creality Slicer 4.8.2-146
M140 S70
M105
M190 S70
M104 S240
M105
M109 S240
M82 ;absolute extrusion mode
M201 X500.00 Y500.00 Z100.00 E5000.00 ;Setup machine max acceleration
M203 X500.00 Y500.00 Z10.00 E50.00 ;Setup machine max feedrate
M204 P500.00 R1000.00 T500.00 ;Setup Print/Retract/Travel acceleration
M205 X8.00 Y8.00 Z0.40 E5.00 ;Setup Jerk
M220 S100 ;Reset Feedrate
M221 S100 ;Reset Flowrate

G28 ;Home

G92 E0 ;Reset Extruder
G1 Z2.0 F3000 ;Move Z Axis up
G1 X10.1 Y20 Z0.28 F5000.0 ;Move to start position
G1 X10.1 Y200.0 Z0.28 F1500.0 E15 ;Draw the first line
G1 X10.4 Y200.0 Z0.28 F5000.0 ;Move to side a little
G1 X10.4 Y20 Z0.28 F1500.0 E30 ;Draw the second line
G92 E0 ;Reset Extruder
G1 Z2.0 F3000 ;Move Z Axis up

G92 E0
G92 E0
G1 F2700 E-5
;LAYER_COUNT:47
; LAYER
;LAYER:0
M107
G0 F6000 X88.847 Y96.153 Z0.28
;TYPE:SKIRT
G1 F2700 E0
G1 F900 X89.544 Y95.526 E0.04365
G1 X90.293 Y94.961 E0.08734
G1 X91.087 Y94.462 E0.13101
G1 X91.92 Y94.032 E0.17466
G1 X92.788 Y93.675 E0.21836
G1 X93.59 Y93.418 E0.25758
G1 X94.591 Y93.14 E0.30595
G1 X95.524 Y92.894 E0.35088
G1 X97.911 Y92.192 E0.46674
G1 X100.325 Y91.408 E0.58492
G1 X102.658 Y90.575 E0.70027
G1 X105.477 Y89.472 E0.84123
G1 X105.88 Y89.308 E0.86149
G1 X106.763 Y88.99 E0.90519
G1 X107.67 Y88.75 E0.94888
G1 X108.593 Y88.587 E0.99252
G1 X109.837 Y88.494 E1.05061
G1 X110.919 Y88.476 E1.101
G1 X115.695 Y88.476 E1.32339
G1 X116.554 Y88.487 E1.36339
G1 X117.491 Y88.54 E1.40709
G1 X118.419 Y88.673 E1.45074
G1 X119.597 Y88.961 E1.50721
G1 X120.101 Y89.116 E1.53176
G1 X120.419 Y89.22 E1.54734
G1 X121.357 Y89.536 E1.59343
G1 X122.232 Y89.873 E1.63709
G1 X123.075 Y90.283 E1.68074
G1 X124.167 Y90.958 E1.74052
G1 X124.654 Y91.3 E1.76823
G1 X124.929 Y91.5 E1.78407
G1 X126.413 Y92.614 E1.87047
G1 X128.999 Y94.483 E2.01904
G1 X129.723 Y94.988 E2.06015
G1 X130.469 Y95.557 E2.10383
G1 X131.163 Y96.187 E2.14748
G1 X131.801 Y96.874 E2.19114
G1 X132.379 Y97.614 E2.23486
G1 X132.891 Y98.399 E2.2785
G1 X133.335 Y99.226 E2.32221
G1 X133.706 Y100.087 E2.36586
G1 X133.914 Y100.682 E2.39521
G1 X133.98 Y100.89 E2.40537
G1 X134.225 Y101.795 E2.44903
G1 X134.392 Y102.718 E2.49271
G1 X134.494 Y104.07 E2.55584
G1 X134.5 Y104.593 E2.58019
G1 X134.498 Y111.422 E2.89818
G1 X134.488 Y112.117 E2.93055
G1 X134.434 Y113.054 E2.97425
G1 X134.301 Y113.982 E3.0179
G1 X134.09 Y114.896 E3.06158
G1 X133.801 Y115.788 E3.10524
G1 X133.437 Y116.653 E3.14894
G1 X133.001 Y117.483 E3.1926
G1 X132.496 Y118.273 E3.23626
G1 X131.926 Y119.017 E3.2799
G1 X131.294 Y119.71 E3.32357
G1 X130.605 Y120.347 E3.36727
G1 X130.162 Y120.704 E3.39376
G1 X129.183 Y121.45 E3.45107
G1 X128.652 Y121.844 E3.48186
G1 X126.89 Y123.224 E3.58607
G1 X126.301 Y123.698 E3.62128
G1 X126.029 Y123.909 E3.63731
G1 X125.586 Y124.243 E3.66314
G1 X125.319 Y124.439 E3.67857
G1 X125.165 Y124.548 E3.68735
G1 X124.372 Y125.059 E3.73128
G1 X123.293 Y125.691 E3.78951
G1 X122.117 Y126.362 E3.85255
G1 X119.966 Y127.669 E3.96975
G1 X119.109 Y128.221 E4.01722
G1 X118.432 Y128.645 E4.05441
G1 X117.616 Y129.108 E4.0981
G1 X116.764 Y129.5 E4.14177
G1 X115.882 Y129.819 E4.18545
G1 X114.976 Y130.061 E4.22911
G1 X114.053 Y130.225 E4.27276
G1 X112.785 Y130.32 E4.33197
G1 X112.156 Y130.331 E4.36127
G1 X111.795 Y130.332 E4.37808
G1 X111.404 Y130.326 E4.39628
G1 X110.468 Y130.271 E4.43994
G1 X109.54 Y130.137 E4.4836
G1 X108.626 Y129.925 E4.52729
G1 X108.03 Y129.741 E4.55634
G1 X107.835 Y129.675 E4.56592
G1 X105.349 Y128.876 E4.68751
G1 X102.962 Y128.182 E4.80326
G1 X100.516 Y127.545 E4.92096
G1 X100.228 Y127.478 E4.93473
G1 X99.047 Y127.19 E4.99133
G1 X98.146 Y126.929 E5.03501
G1 X97.271 Y126.592 E5.07867
G1 X96.118 Y126.009 E5.13883
G1 X95.869 Y125.864 E5.15225
G1 X95.052 Y125.339 E5.19747
G1 X93.993 Y124.589 E5.2579
G1 X92.762 Y123.697 E5.32868
G1 X92.413 Y123.452 E5.34854
G1 X92.024 Y123.166 E5.37102
G1 X91.895 Y123.067 E5.37859
G1 X91.176 Y122.465 E5.42226
G1 X90.511 Y121.804 E5.46592
G1 X89.985 Y121.191 E5.50353
G1 X89.393 Y120.447 E5.5478
G1 X89.077 Y120.06 E5.57107
G1 X88.35 Y119.148 E5.62538
G1 X87.798 Y118.39 E5.66904
G1 X87.311 Y117.588 E5.71273
G1 X86.895 Y116.748 E5.75638
G1 X86.552 Y115.875 E5.80005
G1 X86.204 Y114.633 E5.86011
G1 X86.004 Y113.715 E5.90386
G1 X85.927 Y113.325 E5.92237
G1 X85.596 Y111.489 E6.00924
G1 X85.534 Y111.112 E6.02703
G1 X85.453 Y110.552 E6.05338
G1 X85.359 Y109.619 E6.09704
G1 X85.355 Y108.401 E6.15376
G1 X85.384 Y107.841 E6.17987
G1 X85.508 Y104.164 E6.35118
G1 X85.51 Y103.979 E6.3598
G1 X85.562 Y103.043 E6.40345
G1 X85.694 Y102.114 E6.44714
G1 X85.951 Y101.033 E6.49888
G1 X85.982 Y100.927 E6.50402
G1 X86.284 Y100.039 E6.5477
G1 X86.66 Y99.18 E6.59136
G1 X87.107 Y98.356 E6.63501
G1 X87.624 Y97.573 E6.6787
G1 X88.205 Y96.837 E6.72237
G1 X88.847 Y96.153 E6.76605
G0 F6000 X89.199 Y96.368
G1 F900 X89.89 Y95.76 E6.80891
G1 X90.632 Y95.214 E6.8518
G1 X91.418 Y94.735 E6.89466
G1 X92.242 Y94.325 E6.93752
G1 X93.099 Y93.989 E6.98038
G1 X93.697 Y93.803 E7.00954
G1 X94.693 Y93.527 E7.05767
G1 X95.601 Y93.288 E7.10139
G1 X98.065 Y92.563 E7.22099
G1 X100.446 Y91.79 E7.33755
G1 X102.812 Y90.944 E7.45455
G1 X105.591 Y89.858 E7.59349
G1 X106.032 Y89.678 E7.61567
G1 X106.898 Y89.367 E7.65851
G1 X107.789 Y89.133 E7.70141
G1 X108.696 Y88.977 E7.74426
G1 X109.845 Y88.894 E7.7979
G1 X110.919 Y88.876 E7.84792
G1 X115.695 Y88.876 E8.07031
G1 X116.549 Y88.887 E8.11008
G1 X117.468 Y88.94 E8.15294
G1 X118.379 Y89.073 E8.19581
G1 X119.481 Y89.344 E8.24866
G1 X119.978 Y89.497 E8.27287
G1 X120.291 Y89.599 E8.2882
G1 X121.229 Y89.915 E8.33429
G1 X122.088 Y90.246 E8.37715
G1 X122.915 Y90.651 E8.42003
G1 X123.937 Y91.285 E8.47603
G1 X124.424 Y91.627 E8.50374
G1 X124.689 Y91.82 E8.51901
G1 X126.168 Y92.93 E8.60511
G1 X128.786 Y94.822 E8.75552
G1 X129.494 Y95.316 E8.79572
G1 X130.226 Y95.875 E8.83861
G1 X130.906 Y96.495 E8.88146
G1 X131.53 Y97.173 E8.92436
G1 X132.092 Y97.901 E8.96719
G1 X132.59 Y98.676 E9.01008
G1 X133.018 Y99.491 E9.05295
G1 X133.374 Y100.34 E9.09582
G1 X133.533 Y100.803 E9.11861
G1 X133.599 Y101.011 E9.12877
G1 X133.839 Y101.9 E9.17165
G1 X134.001 Y102.806 E9.21451
G1 X134.094 Y104.075 E9.27375
G1 X134.1 Y104.593 E9.29788
G1 X134.098 Y111.417 E9.61563
G1 X134.088 Y112.112 E9.648
G1 X134.035 Y113.031 E9.69086
G1 X133.902 Y113.942 E9.73373
G1 X133.691 Y114.838 E9.77659
G1 X133.402 Y115.712 E9.81946
G1 X133.039 Y116.558 E9.86232
G1 X132.604 Y117.369 E9.90518
G1 X132.1 Y118.14 E9.94807
G1 X131.532 Y118.864 E9.99092
G1 X130.902 Y119.536 E10.03381
G1 X129.92 Y120.386 E10.09428
G1 X129.063 Y121.04 E10.14448
G1 X128.437 Y121.505 E10.18079
G1 X126.584 Y122.956 E10.29038
G1 X126.05 Y123.386 E10.32231
G1 X125.788 Y123.59 E10.33777
G1 X125.345 Y123.924 E10.3636
G1 X125.088 Y124.112 E10.37843
G1 X124.934 Y124.221 E10.38722
G1 X124.17 Y124.714 E10.42955
G1 X123.095 Y125.343 E10.48755
G1 X121.917 Y126.015 E10.5507
G1 X119.763 Y127.324 E10.66807
G1 X118.896 Y127.882 E10.71608
G1 X118.219 Y128.306 E10.75327
G1 X117.419 Y128.76 E10.79611
G1 X116.581 Y129.143 E10.83901
G1 X115.714 Y129.452 E10.88187
G1 X114.823 Y129.685 E10.92475
G1 X113.916 Y129.839 E10.96759
G1 X112.778 Y129.92 E11.02071
G1 X112.149 Y129.931 E11.05001
G1 X111.801 Y129.932 E11.06621
G1 X111.41 Y129.926 E11.08442
G1 X110.491 Y129.872 E11.12729
G1 X109.58 Y129.738 E11.17016
G1 X108.685 Y129.526 E11.21299
G1 X108.159 Y129.362 E11.23865
G1 X107.977 Y129.3 E11.2476
G1 X105.478 Y128.497 E11.36982
G1 X103.069 Y127.796 E11.48665
G1 X100.583 Y127.15 E11.60625
G1 X100.323 Y127.089 E11.61869
G1 X99.142 Y126.801 E11.67529
G1 X98.258 Y126.544 E11.71816
G1 X97.399 Y126.212 E11.76104
G1 X96.319 Y125.663 E11.81745
G1 X96.07 Y125.518 E11.83087
G1 X95.283 Y125.012 E11.87444
G1 X94.228 Y124.265 E11.93463
G1 X93.005 Y123.378 E12.00498
G1 X92.642 Y123.124 E12.02561
G1 X92.268 Y122.849 E12.04723
G1 X92.139 Y122.75 E12.0548
G1 X91.433 Y122.158 E12.0977
G1 X90.782 Y121.508 E12.14054
G1 X90.298 Y120.942 E12.17521
G1 X89.668 Y120.151 E12.2223
G1 X89.39 Y119.81 E12.24279
G1 X88.663 Y118.898 E12.2971
G1 X88.121 Y118.154 E12.33996
G1 X87.646 Y117.366 E12.3828
G1 X87.241 Y116.539 E12.42568
G1 X86.909 Y115.68 E12.46856
G1 X86.595 Y114.547 E12.52331
G1 X86.395 Y113.629 E12.56706
G1 X86.32 Y113.254 E12.58486
G1 X85.989 Y111.418 E12.67173
G1 X85.93 Y111.054 E12.6889
G1 X85.849 Y110.494 E12.71525
G1 X85.757 Y109.578 E12.75812
G1 X85.755 Y108.422 E12.81195
G1 X85.784 Y107.876 E12.83741
G1 X85.907 Y104.182 E13.00951
G1 X85.91 Y103.984 E13.01873
G1 X85.962 Y103.065 E13.06159
G1 X86.093 Y102.154 E13.10445
G1 X86.335 Y101.146 E13.15272
G1 X86.366 Y101.04 E13.15786
G1 X86.663 Y100.168 E13.20076
G1 X87.034 Y99.325 E13.24364
G1 X87.477 Y98.518 E13.28651
G1 X87.988 Y97.753 E13.32935
G1 X88.563 Y97.034 E13.37222
G1 X89.199 Y96.368 E13.4151
G0 F6000 X89.551 Y96.586
G1 F900 X90.236 Y95.997 E13.45716
G1 X90.97 Y95.47 E13.49924
G1 X91.747 Y95.011 E13.54126
G1 X92.562 Y94.623 E13.58329
G1 X93.805 Y94.189 E13.6446
G1 X94.795 Y93.914 E13.69244
G1 X95.711 Y93.673 E13.73655
G1 X98.164 Y92.951 E13.85561
G1 X100.568 Y92.17 E13.97331
G1 X102.956 Y91.317 E14.09139
G1 X105.74 Y90.229 E14.23057
G1 X106.183 Y90.048 E14.25285
G1 X107.033 Y89.744 E14.29489
G1 X107.907 Y89.517 E14.33694
G1 X108.798 Y89.368 E14.379
G1 X109.852 Y89.294 E14.4282
G1 X110.919 Y89.276 E14.47789
G1 X115.695 Y89.276 E14.70028
G1 X116.543 Y89.287 E14.73977
G1 X117.445 Y89.34 E14.78184
G1 X118.338 Y89.472 E14.82388
G1 X119.364 Y89.727 E14.87311
G1 X119.855 Y89.878 E14.89703
G1 X120.163 Y89.978 E14.91211
G1 X121.101 Y90.294 E14.95819
G1 X121.944 Y90.62 E15.00028
G1 X122.754 Y91.019 E15.04233
G1 X123.707 Y91.613 E15.09462
G1 X124.194 Y91.955 E15.12233
G1 X124.449 Y92.14 E15.13699
G1 X125.923 Y93.246 E15.2228
G1 X125.959 Y93.274 E15.22493
G1 X128.544 Y95.14 E15.37338
G1 X129.266 Y95.644 E15.41438
G1 X129.983 Y96.193 E15.45643
G1 X130.648 Y96.803 E15.49845
G1 X131.257 Y97.47 E15.54051
G1 X131.805 Y98.188 E15.58256
G1 X132.287 Y98.952 E15.62463
G1 X132.7 Y99.755 E15.66667
G1 X133.151 Y100.924 E15.72502
G1 X133.217 Y101.132 E15.73518
G1 X133.452 Y102.004 E15.77723
G1 X133.609 Y102.894 E15.81931
G1 X133.694 Y104.081 E15.87473
G1 X133.7 Y104.593 E15.89857
G1 X133.698 Y111.411 E16.21604
G1 X133.688 Y112.106 E16.24841
G1 X133.635 Y113.007 E16.29044
G1 X133.502 Y113.901 E16.33252
G1 X133.292 Y114.779 E16.37456
G1 X133.004 Y115.635 E16.41661
G1 X132.641 Y116.462 E16.45867
G1 X132.207 Y117.254 E16.50072
G1 X131.705 Y118.004 E16.54275
G1 X131.138 Y118.707 E16.5848
G1 X130.511 Y119.357 E16.62685
G1 X129.677 Y120.068 E16.67789
G1 X128.706 Y120.807 E16.7347
G1 X128.191 Y121.189 E16.76456
G1 X126.375 Y122.611 E16.87196
G1 X125.799 Y123.075 E16.9064
G1 X125.548 Y123.271 E16.92123
G1 X125.105 Y123.605 E16.94707
G1 X124.857 Y123.786 E16.96136
G1 X124.703 Y123.895 E16.97015
G1 X123.968 Y124.369 E17.01087
G1 X122.897 Y124.996 E17.06866
G1 X121.706 Y125.675 E17.1325
G1 X119.544 Y126.989 E17.2503
G1 X118.684 Y127.543 E17.29794
G1 X118.007 Y127.967 E17.33514
G1 X117.221 Y128.412 E17.37719
G1 X116.399 Y128.785 E17.41923
G1 X115.547 Y129.085 E17.46129
G1 X114.672 Y129.308 E17.50333
G1 X113.78 Y129.453 E17.54541
G1 X112.771 Y129.52 E17.5925
G1 X112.142 Y129.531 E17.62179
G1 X111.807 Y129.532 E17.63739
G1 X111.416 Y129.526 E17.6556
G1 X110.515 Y129.472 E17.69763
G1 X109.622 Y129.339 E17.73967
G1 X108.744 Y129.127 E17.78173
G1 X108.288 Y128.983 E17.804
G1 X108.102 Y128.92 E17.81314
G1 X105.607 Y128.118 E17.93517
G1 X103.176 Y127.411 E18.05306
G1 X100.704 Y126.768 E18.172
G1 X100.417 Y126.701 E18.18572
G1 X99.236 Y126.413 E18.24232
G1 X98.369 Y126.16 E18.28438
G1 X97.528 Y125.832 E18.32641
G1 X96.52 Y125.317 E18.37912
G1 X96.271 Y125.172 E18.39254
G1 X95.514 Y124.686 E18.43442
G1 X94.463 Y123.941 E18.49441
G1 X93.22 Y123.04 E18.5659
G1 X92.872 Y122.796 E18.58569
G1 X92.511 Y122.532 E18.60651
G1 X92.382 Y122.433 E18.61408
G1 X91.691 Y121.852 E18.65612
G1 X91.053 Y121.212 E18.6982
G1 X90.611 Y120.693 E18.72995
G1 X90.006 Y119.933 E18.77518
G1 X89.703 Y119.561 E18.79752
G1 X88.976 Y118.649 E18.85183
G1 X88.445 Y117.919 E18.89386
G1 X87.981 Y117.144 E18.93592
G1 X87.586 Y116.331 E18.97801
G1 X87.266 Y115.487 E19.02004
G1 X86.986 Y114.462 E19.06952
G1 X86.786 Y113.544 E19.11326
G1 X86.714 Y113.183 E19.13041
G1 X86.383 Y111.347 E19.21728
G1 X86.326 Y110.997 E19.23379
G1 X86.245 Y110.437 E19.26014
G1 X86.155 Y109.539 E19.30216
G1 X86.154 Y108.443 E19.35319
G1 X86.185 Y107.859 E19.38043
G1 X86.307 Y104.2 E19.5509
G1 X86.31 Y103.989 E19.56072
G1 X86.361 Y103.088 E19.60275
G1 X86.493 Y102.194 E19.64483
G1 X86.719 Y101.258 E19.68966
G1 X86.75 Y101.152 E19.6948
G1 X87.042 Y100.297 E19.73687
G1 X87.408 Y99.472 E19.7789
G1 X87.845 Y98.682 E19.82094
G1 X88.351 Y97.933 E19.86303
G1 X88.921 Y97.233 E19.90506
G1 X89.551 Y96.586 E19.94711
G0 F6000 X110.383 Y100.963
G1 F900 X110.503 Y100.876 E19.95402
G1 X116.025 Y100.876 E20.21114
G1 X116.526 Y101.167 E20.23812
G1 X116.748 Y101.263 E20.24938
G1 X116.459 Y101.267 E20.26284
G1 X116.128 Y101.312 E20.2784
G1 X116.097 Y101.324 E20.27994
G1 X110.503 Y101.324 E20.54042
G1 X110.383 Y101.237 E20.54733
G1 X110.339 Y101.1 E20.55403
G1 X110.383 Y100.963 E20.56073
G0 F6000 X110.044 Y100.715
G1 F900 X110.372 Y100.476 E20.57962
G1 X116.133 Y100.476 E20.84788
G1 X116.727 Y100.821 E20.87987
G1 X116.989 Y100.927 E20.89303
G1 X117.229 Y100.956 E20.90428
G1 X117.54 Y100.956 E20.91876
G1 X117.721 Y101.088 E20.9292
G1 X117.79 Y101.301 E20.93962
G1 X117.721 Y101.514 E20.95005
G1 X117.533 Y101.651 E20.96088
G1 X116.465 Y101.667 E21.01062
G1 X116.186 Y101.711 E21.02377
G1 X116.16 Y101.724 E21.02512
G1 X110.372 Y101.724 E21.29463
G1 X110.044 Y101.485 E21.31353
G1 X109.919 Y101.1 E21.33238
G1 X110.044 Y100.715 E21.35123
G0 F6000 X109.704 Y100.468
G1 F900 X110.242 Y100.076 E21.38222
G1 X116.241 Y100.076 E21.66156
G1 X116.928 Y100.475 E21.69856
G1 X117.229 Y100.556 E21.71307
G1 X117.67 Y100.556 E21.73361
G1 X118.061 Y100.841 E21.75614
G1 X118.21 Y101.301 E21.77865
G1 X118.061 Y101.761 E21.80117
G1 X117.666 Y102.049 E21.82393
G1 X116.471 Y102.067 E21.87958
G1 X116.232 Y102.124 E21.89102
G1 X110.242 Y102.124 E22.16994
G1 X109.704 Y101.732 E22.20094
G1 X109.499 Y101.1 E22.23187
G1 X109.704 Y100.468 E22.26281
G0 F6000 X109.363 Y100.222
G1 F900 X110.113 Y99.676 E22.30601
G1 X116.349 Y99.676 E22.59638
G1 X117.129 Y100.129 E22.63838
G1 X117.229 Y100.156 E22.64321
G1 X117.799 Y100.156 E22.66975
G1 X118.402 Y100.595 E22.70448
G1 X118.632 Y101.301 E22.73906
G1 X118.402 Y102.007 E22.77363
G1 X117.798 Y102.447 E22.80843
G1 X116.477 Y102.467 E22.86994
G1 X116.337 Y102.524 E22.87698
G1 X110.113 Y102.524 E23.1668
G1 X109.363 Y101.978 E23.21
G1 X109.077 Y101.1 E23.25299
G1 X109.363 Y100.222 E23.29599
G1 F2700 E18.29599
G0 F6000 X96.343 Y103.34
G0 X95.839 Y103.844
G0 X95.839 Y105.657
G0 X96.343 Y106.161
G0 X99.372 Y106.5
G1 F2700 E23.29599
G1 F900 X99.276 Y107.239 E23.33069
G1 X98.468 Y107.339 E23.3686
G1 X97.979 Y106.983 E23.39677
G1 X97.856 Y106.5 E23.41998
G1 X99.372 Y106.5 E23.49057
G0 F6000 X98.759 Y106.9
G1 F900 X98.575 Y106.923 E23.4992
G1 X98.543 Y106.9 E23.50104
G1 X98.759 Y106.9 E23.51109
G0 F6000 X98.531 Y108.079
G1 F900 X98.796 Y109.713 E23.58817
G1 X98.893 Y111.556 E23.67411
G1 X98.696 Y112.159 E23.70365
G1 X98.203 Y112.518 E23.73205
G1 X97.597 Y112.518 E23.76027
G1 X97.114 Y112.167 E23.78807
G1 X96.756 Y110.377 E23.87307
G1 X96.533 Y108.987 E23.93862
G1 X96.827 Y107.9 E23.99105
G1 X97.329 Y107.535 E24.01995
G1 X97.938 Y107.535 E24.04831
G1 X98.531 Y108.079 E24.08578
G0 F6000 X98.158 Y108.281
G1 F900 X98.399 Y109.765 E24.15579
G1 X98.49 Y111.503 E24.23683
G1 X98.356 Y111.912 E24.25687
G1 X98.074 Y112.118 E24.27313
G1 X97.726 Y112.118 E24.28934
G1 X97.476 Y111.936 E24.30374
G1 X97.148 Y110.298 E24.38152
G1 X96.942 Y109.009 E24.4423
G1 X97.177 Y108.14 E24.48422
G1 X97.458 Y107.935 E24.50042
G1 X97.781 Y107.935 E24.51546
G1 X98.158 Y108.281 E24.53929
G0 F6000 X97.785 Y108.482
G1 F900 X98 Y109.804 E24.60165
