;FLAVOR:Marlin
;TIME:1181
;Filament used: 0.823623m
;Layer height: 0.28
;MINX:85.355
;MINY:88.476
;MINZ:0.28
;MAXX:134.5
;MAXY:130.332
;MAXZ:13.16
;POSTPROCESSED
;Generated with Creality Slicer 4.8.2-146
M140 S70
M105
M190 S70
M104 S240
M105
M109 S240
M82 ;absolute extrusion mode
M201 X500.00 Y500.00 Z100.00 E5000.00 ;Setup machine max acceleration
M203 X500.00 Y500.00 Z10.00 E50.00 ;Setup machine max feedrate
M204 P500.00 R1000.00 T500.00 ;Setup Print/Retract/Travel acceleration
M205 X8.00 Y8.00 Z0.40 E5.00 ;Setup Jerk
M220 S100 ;Reset Feedrate
M221 S100 ;Reset Flowrate

G28 ;Home

G92 E0 ;Reset Extruder
G1 Z2.0 F3000 
G1 X10.1 Y20 Z0.28 F5000.0  Z1.28
G1 X10.1 Y20 Z0.28 F5000.0  Z1.28

G1 X10.1 Y200.0 Z0.28 F1500.0 E15  Z1.28
G1 X10.1 Y200.0 Z0.28 F1500.0 E15  Z1.28

G1 X10.4 Y200.0 Z0.28 F5000.0  Z1.28
G1 X10.4 Y200.0 Z0.28 F5000.0  Z1.28

G1 X10.4 Y20 Z0.28 F1500.0 E30  Z1.28
G1 X10.4 Y20 Z0.28 F1500.0 E30  Z1.28

G92 E0 ;Reset Extruder
G1 Z2.0 F3000 

G92 E0
G92 E0
G1 F2700 E-
;LAYER_COUNT:47
; LAYER
;LAYER:0
M107
G0 F6000 X88.847 Y96.153 Z0.2 Z1.28
G0 F6000 X88.847 Y96.153 Z0.2 Z1.28

;TYPE:SKIRT
;TYPE:SKIRT
G1 F2700 E
G1 F900 X89.544 Y95.526 E0.0436 Z1.28
G1 F900 X89.544 Y95.526 E0.0436 Z1.28

G1 X90.293 Y94.961 E0.0873 Z1.28
G1 X90.293 Y94.961 E0.0873 Z1.28

G1 X91.087 Y94.462 E0.1310 Z1.28
G1 X91.087 Y94.462 E0.1310 Z1.28

G1 X91.92 Y94.032 E0.1746 Z1.28
G1 X91.92 Y94.032 E0.1746 Z1.28

G1 X92.788 Y93.675 E0.2183 Z1.28
G1 X92.788 Y93.675 E0.2183 Z1.28

G1 X93.59 Y93.418 E0.2575 Z1.28
G1 X93.59 Y93.418 E0.2575 Z1.28

G1 X94.591 Y93.14 E0.3059 Z1.28
G1 X94.591 Y93.14 E0.3059 Z1.28

G1 X95.524 Y92.894 E0.3508 Z1.28
G1 X95.524 Y92.894 E0.3508 Z1.28

G1 X97.911 Y92.192 E0.4667 Z1.28
G1 X97.911 Y92.192 E0.4667 Z1.28

G1 X100.325 Y91.408 E0.5849 Z1.28
G1 X100.325 Y91.408 E0.5849 Z1.28

G1 X102.658 Y90.575 E0.7002 Z1.28
G1 X102.658 Y90.575 E0.7002 Z1.28

G1 X105.477 Y89.472 E0.8412 Z1.28
G1 X105.477 Y89.472 E0.8412 Z1.28

G1 X105.88 Y89.308 E0.8614 Z1.28
G1 X105.88 Y89.308 E0.8614 Z1.28

G1 X106.763 Y88.99 E0.9051 Z1.28
G1 X106.763 Y88.99 E0.9051 Z1.28

G1 X107.67 Y88.75 E0.9488 Z1.28
G1 X107.67 Y88.75 E0.9488 Z1.28

G1 X108.593 Y88.587 E0.9925 Z1.28
G1 X108.593 Y88.587 E0.9925 Z1.28

G1 X109.837 Y88.494 E1.0506 Z1.28
G1 X109.837 Y88.494 E1.0506 Z1.28

G1 X110.919 Y88.476 E1.10 Z1.28
G1 X110.919 Y88.476 E1.10 Z1.28

G1 X115.695 Y88.476 E1.3233 Z1.28
G1 X115.695 Y88.476 E1.3233 Z1.28

G1 X116.554 Y88.487 E1.3633 Z1.28
G1 X116.554 Y88.487 E1.3633 Z1.28

G1 X117.491 Y88.54 E1.4070 Z1.28
G1 X117.491 Y88.54 E1.4070 Z1.28

G1 X118.419 Y88.673 E1.4507 Z1.28
G1 X118.419 Y88.673 E1.4507 Z1.28

G1 X119.597 Y88.961 E1.5072 Z1.28
G1 X119.597 Y88.961 E1.5072 Z1.28

G1 X120.101 Y89.116 E1.5317 Z1.28
G1 X120.101 Y89.116 E1.5317 Z1.28

G1 X120.419 Y89.22 E1.5473 Z1.28
G1 X120.419 Y89.22 E1.5473 Z1.28

G1 X121.357 Y89.536 E1.5934 Z1.28
G1 X121.357 Y89.536 E1.5934 Z1.28

G1 X122.232 Y89.873 E1.6370 Z1.28
G1 X122.232 Y89.873 E1.6370 Z1.28

G1 X123.075 Y90.283 E1.6807 Z1.28
G1 X123.075 Y90.283 E1.6807 Z1.28

G1 X124.167 Y90.958 E1.7405 Z1.28
G1 X124.167 Y90.958 E1.7405 Z1.28

G1 X124.654 Y91.3 E1.7682 Z1.28
G1 X124.654 Y91.3 E1.7682 Z1.28

G1 X124.929 Y91.5 E1.7840 Z1.28
G1 X124.929 Y91.5 E1.7840 Z1.28

G1 X126.413 Y92.614 E1.8704 Z1.28
G1 X126.413 Y92.614 E1.8704 Z1.28

G1 X128.999 Y94.483 E2.0190 Z1.28
G1 X128.999 Y94.483 E2.0190 Z1.28

G1 X129.723 Y94.988 E2.0601 Z1.28
G1 X129.723 Y94.988 E2.0601 Z1.28

G1 X130.469 Y95.557 E2.1038 Z1.28
G1 X130.469 Y95.557 E2.1038 Z1.28

G1 X131.163 Y96.187 E2.1474 Z1.28
G1 X131.163 Y96.187 E2.1474 Z1.28

G1 X131.801 Y96.874 E2.1911 Z1.28
G1 X131.801 Y96.874 E2.1911 Z1.28

G1 X132.379 Y97.614 E2.2348 Z1.28
G1 X132.379 Y97.614 E2.2348 Z1.28

G1 X132.891 Y98.399 E2.278 Z1.28
G1 X132.891 Y98.399 E2.278 Z1.28

G1 X133.335 Y99.226 E2.3222 Z1.28
G1 X133.335 Y99.226 E2.3222 Z1.28

G1 X133.706 Y100.087 E2.3658 Z1.28
G1 X133.706 Y100.087 E2.3658 Z1.28

G1 X133.914 Y100.682 E2.3952 Z1.28
G1 X133.914 Y100.682 E2.3952 Z1.28

G1 X133.98 Y100.89 E2.4053 Z1.28
G1 X133.98 Y100.89 E2.4053 Z1.28

G1 X134.225 Y101.795 E2.4490 Z1.28
G1 X134.225 Y101.795 E2.4490 Z1.28

G1 X134.392 Y102.718 E2.4927 Z1.28
G1 X134.392 Y102.718 E2.4927 Z1.28

G1 X134.494 Y104.07 E2.5558 Z1.28
G1 X134.494 Y104.07 E2.5558 Z1.28

G1 X134.5 Y104.593 E2.5801 Z1.28
G1 X134.5 Y104.593 E2.5801 Z1.28

G1 X134.498 Y111.422 E2.8981 Z1.28
G1 X134.498 Y111.422 E2.8981 Z1.28

G1 X134.488 Y112.117 E2.9305 Z1.28
G1 X134.488 Y112.117 E2.9305 Z1.28

G1 X134.434 Y113.054 E2.9742 Z1.28
G1 X134.434 Y113.054 E2.9742 Z1.28

G1 X134.301 Y113.982 E3.017 Z1.28
G1 X134.301 Y113.982 E3.017 Z1.28

G1 X134.09 Y114.896 E3.0615 Z1.28
G1 X134.09 Y114.896 E3.0615 Z1.28

G1 X133.801 Y115.788 E3.1052 Z1.28
G1 X133.801 Y115.788 E3.1052 Z1.28

G1 X133.437 Y116.653 E3.1489 Z1.28
G1 X133.437 Y116.653 E3.1489 Z1.28

G1 X133.001 Y117.483 E3.192 Z1.28
G1 X133.001 Y117.483 E3.192 Z1.28

G1 X132.496 Y118.273 E3.2362 Z1.28
G1 X132.496 Y118.273 E3.2362 Z1.28

G1 X131.926 Y119.017 E3.279 Z1.28
G1 X131.926 Y119.017 E3.279 Z1.28

G1 X131.294 Y119.71 E3.3235 Z1.28
G1 X131.294 Y119.71 E3.3235 Z1.28

G1 X130.605 Y120.347 E3.3672 Z1.28
G1 X130.605 Y120.347 E3.3672 Z1.28

G1 X130.162 Y120.704 E3.3937 Z1.28
G1 X130.162 Y120.704 E3.3937 Z1.28

G1 X129.183 Y121.45 E3.4510 Z1.28
G1 X129.183 Y121.45 E3.4510 Z1.28

G1 X128.652 Y121.844 E3.4818 Z1.28
G1 X128.652 Y121.844 E3.4818 Z1.28

G1 X126.89 Y123.224 E3.5860 Z1.28
G1 X126.89 Y123.224 E3.5860 Z1.28

G1 X126.301 Y123.698 E3.6212 Z1.28
G1 X126.301 Y123.698 E3.6212 Z1.28

G1 X126.029 Y123.909 E3.6373 Z1.28
G1 X126.029 Y123.909 E3.6373 Z1.28

G1 X125.586 Y124.243 E3.6631 Z1.28
G1 X125.586 Y124.243 E3.6631 Z1.28

G1 X125.319 Y124.439 E3.6785 Z1.28
G1 X125.319 Y124.439 E3.6785 Z1.28

G1 X125.165 Y124.548 E3.6873 Z1.28
G1 X125.165 Y124.548 E3.6873 Z1.28

G1 X124.372 Y125.059 E3.7312 Z1.28
G1 X124.372 Y125.059 E3.7312 Z1.28

G1 X123.293 Y125.691 E3.7895 Z1.28
G1 X123.293 Y125.691 E3.7895 Z1.28

G1 X122.117 Y126.362 E3.8525 Z1.28
G1 X122.117 Y126.362 E3.8525 Z1.28

G1 X119.966 Y127.669 E3.9697 Z1.28
G1 X119.966 Y127.669 E3.9697 Z1.28

G1 X119.109 Y128.221 E4.0172 Z1.28
G1 X119.109 Y128.221 E4.0172 Z1.28

G1 X118.432 Y128.645 E4.0544 Z1.28
G1 X118.432 Y128.645 E4.0544 Z1.28

G1 X117.616 Y129.108 E4.098 Z1.28
G1 X117.616 Y129.108 E4.098 Z1.28

G1 X116.764 Y129.5 E4.1417 Z1.28
G1 X116.764 Y129.5 E4.1417 Z1.28

G1 X115.882 Y129.819 E4.1854 Z1.28
G1 X115.882 Y129.819 E4.1854 Z1.28

G1 X114.976 Y130.061 E4.2291 Z1.28
G1 X114.976 Y130.061 E4.2291 Z1.28

G1 X114.053 Y130.225 E4.2727 Z1.28
G1 X114.053 Y130.225 E4.2727 Z1.28

G1 X112.785 Y130.32 E4.3319 Z1.28
G1 X112.785 Y130.32 E4.3319 Z1.28

G1 X112.156 Y130.331 E4.3612 Z1.28
G1 X112.156 Y130.331 E4.3612 Z1.28

G1 X111.795 Y130.332 E4.3780 Z1.28
G1 X111.795 Y130.332 E4.3780 Z1.28

G1 X111.404 Y130.326 E4.3962 Z1.28
G1 X111.404 Y130.326 E4.3962 Z1.28

G1 X110.468 Y130.271 E4.4399 Z1.28
G1 X110.468 Y130.271 E4.4399 Z1.28

G1 X109.54 Y130.137 E4.483 Z1.28
G1 X109.54 Y130.137 E4.483 Z1.28

G1 X108.626 Y129.925 E4.5272 Z1.28
G1 X108.626 Y129.925 E4.5272 Z1.28

G1 X108.03 Y129.741 E4.5563 Z1.28
G1 X108.03 Y129.741 E4.5563 Z1.28

G1 X107.835 Y129.675 E4.5659 Z1.28
G1 X107.835 Y129.675 E4.5659 Z1.28

G1 X105.349 Y128.876 E4.6875 Z1.28
G1 X105.349 Y128.876 E4.6875 Z1.28

G1 X102.962 Y128.182 E4.8032 Z1.28
G1 X102.962 Y128.182 E4.8032 Z1.28

G1 X100.516 Y127.545 E4.9209 Z1.28
G1 X100.516 Y127.545 E4.9209 Z1.28

G1 X100.228 Y127.478 E4.9347 Z1.28
G1 X100.228 Y127.478 E4.9347 Z1.28

G1 X99.047 Y127.19 E4.9913 Z1.28
G1 X99.047 Y127.19 E4.9913 Z1.28

G1 X98.146 Y126.929 E5.0350 Z1.28
G1 X98.146 Y126.929 E5.0350 Z1.28

G1 X97.271 Y126.592 E5.0786 Z1.28
G1 X97.271 Y126.592 E5.0786 Z1.28

G1 X96.118 Y126.009 E5.1388 Z1.28
G1 X96.118 Y126.009 E5.1388 Z1.28

G1 X95.869 Y125.864 E5.1522 Z1.28
G1 X95.869 Y125.864 E5.1522 Z1.28

G1 X95.052 Y125.339 E5.1974 Z1.28
G1 X95.052 Y125.339 E5.1974 Z1.28

G1 X93.993 Y124.589 E5.257 Z1.28
G1 X93.993 Y124.589 E5.257 Z1.28

G1 X92.762 Y123.697 E5.3286 Z1.28
G1 X92.762 Y123.697 E5.3286 Z1.28

G1 X92.413 Y123.452 E5.3485 Z1.28
G1 X92.413 Y123.452 E5.3485 Z1.28

G1 X92.024 Y123.166 E5.3710 Z1.28
G1 X92.024 Y123.166 E5.3710 Z1.28

G1 X91.895 Y123.067 E5.3785 Z1.28
G1 X91.895 Y123.067 E5.3785 Z1.28

G1 X91.176 Y122.465 E5.4222 Z1.28
G1 X91.176 Y122.465 E5.4222 Z1.28

G1 X90.511 Y121.804 E5.4659 Z1.28
G1 X90.511 Y121.804 E5.4659 Z1.28

G1 X89.985 Y121.191 E5.5035 Z1.28
G1 X89.985 Y121.191 E5.5035 Z1.28

G1 X89.393 Y120.447 E5.547 Z1.28
G1 X89.393 Y120.447 E5.547 Z1.28

G1 X89.077 Y120.06 E5.5710 Z1.28
G1 X89.077 Y120.06 E5.5710 Z1.28

G1 X88.35 Y119.148 E5.6253 Z1.28
G1 X88.35 Y119.148 E5.6253 Z1.28

G1 X87.798 Y118.39 E5.6690 Z1.28
G1 X87.798 Y118.39 E5.6690 Z1.28

G1 X87.311 Y117.588 E5.7127 Z1.28
G1 X87.311 Y117.588 E5.7127 Z1.28

G1 X86.895 Y116.748 E5.7563 Z1.28
G1 X86.895 Y116.748 E5.7563 Z1.28

G1 X86.552 Y115.875 E5.8000 Z1.28
G1 X86.552 Y115.875 E5.8000 Z1.28

G1 X86.204 Y114.633 E5.8601 Z1.28
G1 X86.204 Y114.633 E5.8601 Z1.28

G1 X86.004 Y113.715 E5.9038 Z1.28
G1 X86.004 Y113.715 E5.9038 Z1.28

G1 X85.927 Y113.325 E5.9223 Z1.28
G1 X85.927 Y113.325 E5.9223 Z1.28

G1 X85.596 Y111.489 E6.0092 Z1.28
G1 X85.596 Y111.489 E6.0092 Z1.28

G1 X85.534 Y111.112 E6.0270 Z1.28
G1 X85.534 Y111.112 E6.0270 Z1.28

G1 X85.453 Y110.552 E6.0533 Z1.28
G1 X85.453 Y110.552 E6.0533 Z1.28

G1 X85.359 Y109.619 E6.0970 Z1.28
G1 X85.359 Y109.619 E6.0970 Z1.28

G1 X85.355 Y108.401 E6.1537 Z1.28
G1 X85.355 Y108.401 E6.1537 Z1.28

G1 X85.384 Y107.841 E6.1798 Z1.28
G1 X85.384 Y107.841 E6.1798 Z1.28

G1 X85.508 Y104.164 E6.3511 Z1.28
G1 X85.508 Y104.164 E6.3511 Z1.28

G1 X85.51 Y103.979 E6.359 Z1.28
G1 X85.51 Y103.979 E6.359 Z1.28

G1 X85.562 Y103.043 E6.4034 Z1.28
G1 X85.562 Y103.043 E6.4034 Z1.28

G1 X85.694 Y102.114 E6.4471 Z1.28
G1 X85.694 Y102.114 E6.4471 Z1.28

G1 X85.951 Y101.033 E6.4988 Z1.28
G1 X85.951 Y101.033 E6.4988 Z1.28

G1 X85.982 Y100.927 E6.5040 Z1.28
G1 X85.982 Y100.927 E6.5040 Z1.28

G1 X86.284 Y100.039 E6.547 Z1.28
G1 X86.284 Y100.039 E6.547 Z1.28

G1 X86.66 Y99.18 E6.5913 Z1.28
G1 X86.66 Y99.18 E6.5913 Z1.28

G1 X87.107 Y98.356 E6.6350 Z1.28
G1 X87.107 Y98.356 E6.6350 Z1.28

G1 X87.624 Y97.573 E6.678 Z1.28
G1 X87.624 Y97.573 E6.678 Z1.28

G1 X88.205 Y96.837 E6.7223 Z1.28
G1 X88.205 Y96.837 E6.7223 Z1.28

G1 X88.847 Y96.153 E6.7660 Z1.28
G1 X88.847 Y96.153 E6.7660 Z1.28

G0 F6000 X89.199 Y96.36 Z1.28
G0 F6000 X89.199 Y96.36 Z1.28

G1 F900 X89.89 Y95.76 E6.8089 Z1.28
G1 F900 X89.89 Y95.76 E6.8089 Z1.28

G1 X90.632 Y95.214 E6.851 Z1.28
G1 X90.632 Y95.214 E6.851 Z1.28

G1 X91.418 Y94.735 E6.8946 Z1.28
G1 X91.418 Y94.735 E6.8946 Z1.28

G1 X92.242 Y94.325 E6.9375 Z1.28
G1 X92.242 Y94.325 E6.9375 Z1.28

G1 X93.099 Y93.989 E6.9803 Z1.28
G1 X93.099 Y93.989 E6.9803 Z1.28

G1 X93.697 Y93.803 E7.0095 Z1.28
G1 X93.697 Y93.803 E7.0095 Z1.28

G1 X94.693 Y93.527 E7.0576 Z1.28
G1 X94.693 Y93.527 E7.0576 Z1.28

G1 X95.601 Y93.288 E7.1013 Z1.28
G1 X95.601 Y93.288 E7.1013 Z1.28

G1 X98.065 Y92.563 E7.2209 Z1.28
G1 X98.065 Y92.563 E7.2209 Z1.28

G1 X100.446 Y91.79 E7.3375 Z1.28
G1 X100.446 Y91.79 E7.3375 Z1.28

G1 X102.812 Y90.944 E7.4545 Z1.28
G1 X102.812 Y90.944 E7.4545 Z1.28

G1 X105.591 Y89.858 E7.5934 Z1.28
G1 X105.591 Y89.858 E7.5934 Z1.28

G1 X106.032 Y89.678 E7.6156 Z1.28
G1 X106.032 Y89.678 E7.6156 Z1.28

G1 X106.898 Y89.367 E7.6585 Z1.28
G1 X106.898 Y89.367 E7.6585 Z1.28

G1 X107.789 Y89.133 E7.7014 Z1.28
G1 X107.789 Y89.133 E7.7014 Z1.28

G1 X108.696 Y88.977 E7.7442 Z1.28
G1 X108.696 Y88.977 E7.7442 Z1.28

G1 X109.845 Y88.894 E7.797 Z1.28
G1 X109.845 Y88.894 E7.797 Z1.28

G1 X110.919 Y88.876 E7.8479 Z1.28
G1 X110.919 Y88.876 E7.8479 Z1.28

G1 X115.695 Y88.876 E8.0703 Z1.28
G1 X115.695 Y88.876 E8.0703 Z1.28

G1 X116.549 Y88.887 E8.1100 Z1.28
G1 X116.549 Y88.887 E8.1100 Z1.28

G1 X117.468 Y88.94 E8.1529 Z1.28
G1 X117.468 Y88.94 E8.1529 Z1.28

G1 X118.379 Y89.073 E8.1958 Z1.28
G1 X118.379 Y89.073 E8.1958 Z1.28

G1 X119.481 Y89.344 E8.2486 Z1.28
G1 X119.481 Y89.344 E8.2486 Z1.28

G1 X119.978 Y89.497 E8.2728 Z1.28
G1 X119.978 Y89.497 E8.2728 Z1.28

G1 X120.291 Y89.599 E8.288 Z1.28
G1 X120.291 Y89.599 E8.288 Z1.28

G1 X121.229 Y89.915 E8.3342 Z1.28
G1 X121.229 Y89.915 E8.3342 Z1.28

G1 X122.088 Y90.246 E8.3771 Z1.28
G1 X122.088 Y90.246 E8.3771 Z1.28

G1 X122.915 Y90.651 E8.4200 Z1.28
G1 X122.915 Y90.651 E8.4200 Z1.28

G1 X123.937 Y91.285 E8.4760 Z1.28
G1 X123.937 Y91.285 E8.4760 Z1.28

G1 X124.424 Y91.627 E8.5037 Z1.28
G1 X124.424 Y91.627 E8.5037 Z1.28

G1 X124.689 Y91.82 E8.5190 Z1.28
G1 X124.689 Y91.82 E8.5190 Z1.28

G1 X126.168 Y92.93 E8.6051 Z1.28
G1 X126.168 Y92.93 E8.6051 Z1.28

G1 X128.786 Y94.822 E8.7555 Z1.28
G1 X128.786 Y94.822 E8.7555 Z1.28

G1 X129.494 Y95.316 E8.7957 Z1.28
G1 X129.494 Y95.316 E8.7957 Z1.28

G1 X130.226 Y95.875 E8.8386 Z1.28
G1 X130.226 Y95.875 E8.8386 Z1.28

G1 X130.906 Y96.495 E8.8814 Z1.28
G1 X130.906 Y96.495 E8.8814 Z1.28

G1 X131.53 Y97.173 E8.9243 Z1.28
G1 X131.53 Y97.173 E8.9243 Z1.28

G1 X132.092 Y97.901 E8.9671 Z1.28
G1 X132.092 Y97.901 E8.9671 Z1.28

G1 X132.59 Y98.676 E9.0100 Z1.28
G1 X132.59 Y98.676 E9.0100 Z1.28

G1 X133.018 Y99.491 E9.0529 Z1.28
G1 X133.018 Y99.491 E9.0529 Z1.28

G1 X133.374 Y100.34 E9.0958 Z1.28
G1 X133.374 Y100.34 E9.0958 Z1.28

G1 X133.533 Y100.803 E9.1186 Z1.28
G1 X133.533 Y100.803 E9.1186 Z1.28

G1 X133.599 Y101.011 E9.1287 Z1.28
G1 X133.599 Y101.011 E9.1287 Z1.28

G1 X133.839 Y101.9 E9.1716 Z1.28
G1 X133.839 Y101.9 E9.1716 Z1.28

G1 X134.001 Y102.806 E9.2145 Z1.28
G1 X134.001 Y102.806 E9.2145 Z1.28

G1 X134.094 Y104.075 E9.2737 Z1.28
G1 X134.094 Y104.075 E9.2737 Z1.28

G1 X134.1 Y104.593 E9.2978 Z1.28
G1 X134.1 Y104.593 E9.2978 Z1.28

G1 X134.098 Y111.417 E9.6156 Z1.28
G1 X134.098 Y111.417 E9.6156 Z1.28

G1 X134.088 Y112.112 E9.64 Z1.28
G1 X134.088 Y112.112 E9.64 Z1.28

G1 X134.035 Y113.031 E9.6908 Z1.28
G1 X134.035 Y113.031 E9.6908 Z1.28

G1 X133.902 Y113.942 E9.7337 Z1.28
G1 X133.902 Y113.942 E9.7337 Z1.28

G1 X133.691 Y114.838 E9.7765 Z1.28
G1 X133.691 Y114.838 E9.7765 Z1.28

G1 X133.402 Y115.712 E9.8194 Z1.28
G1 X133.402 Y115.712 E9.8194 Z1.28

G1 X133.039 Y116.558 E9.8623 Z1.28
G1 X133.039 Y116.558 E9.8623 Z1.28

G1 X132.604 Y117.369 E9.9051 Z1.28
G1 X132.604 Y117.369 E9.9051 Z1.28

G1 X132.1 Y118.14 E9.9480 Z1.28
G1 X132.1 Y118.14 E9.9480 Z1.28

G1 X131.532 Y118.864 E9.9909 Z1.28
G1 X131.532 Y118.864 E9.9909 Z1.28

G1 X130.902 Y119.536 E10.0338 Z1.28
G1 X130.902 Y119.536 E10.0338 Z1.28

G1 X129.92 Y120.386 E10.0942 Z1.28
G1 X129.92 Y120.386 E10.0942 Z1.28

G1 X129.063 Y121.04 E10.1444 Z1.28
G1 X129.063 Y121.04 E10.1444 Z1.28

G1 X128.437 Y121.505 E10.1807 Z1.28
G1 X128.437 Y121.505 E10.1807 Z1.28

G1 X126.584 Y122.956 E10.2903 Z1.28
G1 X126.584 Y122.956 E10.2903 Z1.28

G1 X126.05 Y123.386 E10.3223 Z1.28
G1 X126.05 Y123.386 E10.3223 Z1.28

G1 X125.788 Y123.59 E10.3377 Z1.28
G1 X125.788 Y123.59 E10.3377 Z1.28

G1 X125.345 Y123.924 E10.363 Z1.28
G1 X125.345 Y123.924 E10.363 Z1.28

G1 X125.088 Y124.112 E10.3784 Z1.28
G1 X125.088 Y124.112 E10.3784 Z1.28

G1 X124.934 Y124.221 E10.3872 Z1.28
G1 X124.934 Y124.221 E10.3872 Z1.28

G1 X124.17 Y124.714 E10.4295 Z1.28
G1 X124.17 Y124.714 E10.4295 Z1.28

G1 X123.095 Y125.343 E10.4875 Z1.28
G1 X123.095 Y125.343 E10.4875 Z1.28

G1 X121.917 Y126.015 E10.550 Z1.28
G1 X121.917 Y126.015 E10.550 Z1.28

G1 X119.763 Y127.324 E10.6680 Z1.28
G1 X119.763 Y127.324 E10.6680 Z1.28

G1 X118.896 Y127.882 E10.7160 Z1.28
G1 X118.896 Y127.882 E10.7160 Z1.28

G1 X118.219 Y128.306 E10.7532 Z1.28
G1 X118.219 Y128.306 E10.7532 Z1.28

G1 X117.419 Y128.76 E10.7961 Z1.28
G1 X117.419 Y128.76 E10.7961 Z1.28

G1 X116.581 Y129.143 E10.8390 Z1.28
G1 X116.581 Y129.143 E10.8390 Z1.28

G1 X115.714 Y129.452 E10.8818 Z1.28
G1 X115.714 Y129.452 E10.8818 Z1.28

G1 X114.823 Y129.685 E10.9247 Z1.28
G1 X114.823 Y129.685 E10.9247 Z1.28

G1 X113.916 Y129.839 E10.9675 Z1.28
G1 X113.916 Y129.839 E10.9675 Z1.28

G1 X112.778 Y129.92 E11.0207 Z1.28
G1 X112.778 Y129.92 E11.0207 Z1.28

G1 X112.149 Y129.931 E11.0500 Z1.28
